projects/js-packages/social-logos/src/svg/spotify.svg

<svg enable-background="new 0 0 24 24" viewBox="0 0 24 24" xmlns="http://www.w3.org/2000/svg"><path d="m12 2c-5.523 0-10 4.477-10 10s4.477 10 10 10 10-4.477 10-10-4.477-10-10-10m4.586 14.424c-.18.295-.563.387-.857.207-2.348-1.435-5.304-1.76-8.785-.964-.335.077-.67-.133-.746-.469-.077-.335.132-.67.469-.746 3.809-.871 7.077-.496 9.713 1.115.293.179.386.563.206.857m1.224-2.724c-.226.367-.706.482-1.072.257-2.687-1.652-6.785-2.131-9.965-1.166-.413.126-.848-.107-.973-.518-.125-.413.108-.848.52-.973 3.632-1.102 8.147-.568 11.234 1.328.366.226.481.707.256 1.072m.105-2.835c-3.223-1.914-8.54-2.09-11.618-1.156-.493.15-1.016-.129-1.166-.623-.149-.495.129-1.017.624-1.167 3.532-1.072 9.404-.865 13.115 1.338.445.264.59.838.327 1.282-.264.444-.838.59-1.282.326"/></svg>

<?xml version="1.0" encoding="iso-8859-1"?>
<!-- Generator: Adobe Illustrator 19.2.1, SVG Export Plug-In . SVG Version: 6.00 Build 0)  -->
<svg version="1.1" xmlns="http://www.w3.org/2000/svg" xmlns:xlink="http://www.w3.org/1999/xlink" x="0px" y="0px"
	 viewBox="0 0 24 24" style="enable-background:new 0 0 24 24;" xml:space="preserve">
<g id="spotify">
	<path d="M12,2C6.477,2,2,6.477,2,12c0,5.523,4.477,10,10,10c5.523,0,10-4.477,10-10C22,6.477,17.523,2,12,2 M16.586,16.424
		c-0.18,0.295-0.563,0.387-0.857,0.207c-2.348-1.435-5.304-1.76-8.785-0.964c-0.335,0.077-0.67-0.133-0.746-0.469
		c-0.077-0.335,0.132-0.67,0.469-0.746c3.809-0.871,7.077-0.496,9.713,1.115C16.673,15.746,16.766,16.13,16.586,16.424 M17.81,13.7
		c-0.226,0.367-0.706,0.482-1.072,0.257c-2.687-1.652-6.785-2.131-9.965-1.166C6.36,12.917,5.925,12.684,5.8,12.273
		C5.675,11.86,5.908,11.425,6.32,11.3c3.632-1.102,8.147-0.568,11.234,1.328C17.92,12.854,18.035,13.335,17.81,13.7 M17.915,10.865
		c-3.223-1.914-8.54-2.09-11.618-1.156C5.804,9.859,5.281,9.58,5.131,9.086C4.982,8.591,5.26,8.069,5.755,7.919
		c3.532-1.072,9.404-0.865,13.115,1.338c0.445,0.264,0.59,0.838,0.327,1.282C18.933,10.983,18.359,11.129,17.915,10.865"/>
</g>
<g id="Layer_1">
</g>
</svg>
